svg/Outline/alert.svg

<svg viewBox="0 0 24 24" xmlns="http://www.w3.org/2000/svg" width="24" height="24"><path d="M12 16.8a1.1 1.1 0 1 1 0 2.2 1.1 1.1 0 0 1 0-2.2M12 5c.32 0 .52.13.71.37q.3.36.29.92l-.19 7.5c0 .23-.08.52-.2.69l-.05.06a1 1 0 0 1-.56.26.7.7 0 0 1-.5-.2l-.07-.06a1.3 1.3 0 0 1-.25-.75L11 6.3v-.14q.02-.49.29-.8c.2-.23.37-.35.7-.35"/></svg>

<svg viewBox="0 0 24 24" xmlns="http://www.w3.org/2000/svg" width="24" height="24"><path d="M12 16.8a1.1 1.1 0 1 1 0 2.2 1.1 1.1 0 0 1 0-2.2M12 5C12.32 5 12.52 5.13 12.71 5.37Q13.01 5.73 13 6.29L12.81 13.79C12.81 14.02 12.73 14.31 12.61 14.48L12.56 14.54A1 1 0 0 1 12 14.8A.7 .7 0 0 1 11.5 14.6L11.43 14.54A1.3 1.3 0 0 1 11.18 13.79L11 6.16Q11.02 5.67 11.29 5.36C11.49 5.13 11.66 5.01 11.99 5.01"/></svg>
